packages/asc-assets/svg/Print.svg

<svg viewBox="0 0 32 32"><path d="M27 12h5v16h-5v4H5v-4H0V12h5V0h16.41L27 5.59V12zM7 2v10h18V7h-5V2H7zm18 28V20H7v10h18zM9 22h14v2H9v-2zm0 4h14v2H9v-2z"></path></svg>

<?xml version="1.0" encoding="UTF-8"?>
<svg viewBox="0 0 32 32" version="1.1" xmlns="http://www.w3.org/2000/svg" xmlns:xlink="http://www.w3.org/1999/xlink">
    <path d="M27,12 L32,12 L32,28 L27,28 L27,32 L5,32 L5,28 L0,28 L0,12 L5,12 L5,0 L21.41,0 L27,5.59 L27,12 Z M7,2 L7,12 L25,12 L25,7 L20,7 L20,2 L7,2 Z M25,30 L25,20 L7,20 L7,30 L25,30 Z M9,22 L23,22 L23,24 L9,24 L9,22 Z M9,26 L23,26 L23,28 L9,28 L9,26 Z" id="print" fill="#000000"></path>
</svg>
